X:152
T:<Another Barn Dance> (Jimmy Duffy's #2)
M:4/4
L:1/8
R:barndance
N:Learned from Kira Ott
Z:Michael Abraham Shulman
K:G
ga|:b2ba g2ge|dBGA BcBA|GABc defg|afge d2ga|
b2ba g2ge|dBGA BcBA|Ggfe dcBA|1 G2FA G2ga:|2 G2FA G2Bd|
|:e2e2 d2B2|G3F G2 (3DEF|GABc defg|1 afge d2Bd:|2 a2d2 g2||
